X:1
T:Title
%%score ( 1 2 ) { 3 | 4 }
L:1/8
Q:1/4=110
M:9/8
K:F
V:1 treble nm="Grand Piano, Soprano"
V:2 treble 
V:3 bass nm="Choir Pad, Nevado del Ruiz, 99.99 D"
V:4 bass 
V:1
 [Fc][F=B][Fc] [FA]3 F3 | [Fc][D=B][Cc] [CE]6 | [EB][EA][EB] [EG]3 [EB]3 | [Ed][Fc][EB] [FA]6 | %4
w: By~Thomas~L.~Rhodes,~1923 * * * *||||
 [Fc][F=B][Fc] [FA]3 F3 | [FA][FB][Ec] [DB]6 | [FB][Fc][Fd] [Fc]3 [FA]3 | [EG]F[EG] F6 | %8
w: ||||
 [FA][GB][Ac] [Bd]3 [Bd]3 | [Bd][ce][df] [Ac]6 | [FA][GB][Ac] [GB]3 [EG]3 | edc FFF F3 | %12
w: ||||
 [Fc][F=B][Fc] [FA]3 F3 | [FA][FB][_Ec] [DB]6 | [FB][Fc][Fd] [Fc]3 [FA]3 | [EG]F[EG] F6- | %16
w: ||||
 F3 z3 z3 |] %17
w: |
V:2
 x9 | x9 | x9 | x9 | x9 | x9 | x9 | x9 | x9 | x9 | x9 | z3 A6 | x9 | x9 | x9 | x9 | x9 |] %17
V:3
 A,_A,=A, C3 A,3 | A,_A,=A, B,6 | G,^F,G,[K:treble] C3 C3 | CCC C6 | A,_A,=A, C3 A,3 | CG,A, B,6 | %6
 B,A,B, A,3 C3 | B,A,B, A,6 | z3[K:treble] FFF F3 | F3 FFF F3 | z3 CCC C2 C | C[K:bass]B,A, C6 | %12
 A,_A,=A, C3 A,3 | CG,A, B,6 | B,A,B, A,3 C3 | B,A,A, A,6- | A,3 z3 z3 |] %17
V:4
 F,F,F, F,3 F,3 | F,F,F, G,6 | C,C,C, C,3 G,3 | B,A,G, F,6 | F,F,F, F,3 F,3 | F,F,F, B,,6 | %6
 D,C,B,, C,3 C,3 | C,C,C, F,6 | z3 B,B,B, B,3 | B,3 F,A,C A,3 | z3 C,E,G, z3 | %11
 z3 [F,,F,]A,,C, F,3 | F,F,F, F,3 F,3 | F,F,F, B,,6 | D,C,B,, C,3 C,3 | C,C,C, [F,,F,]6- | %16
 [F,,F,]3 z3 z3 |] %17

